static/image/Proxy.svg

<svg height="532px" version="1.1" viewBox="-0.5 -0.5 512 532" width="512px" xmlns="http://www.w3.org/2000/svg" xmlns:xlink="http://www.w3.org/1999/xlink"><defs/><rect height="60" class="none-stroke" width="160" x="230" y="100"/><foreignObject class="leftdiv" ><div class="flexcenter flexzero" style="width:158px;padding-top:130px;margin-left:231px" xmlns="http://www.w3.org/1999/xhtml"><div class="centerdiv"><div style="display:inline-block;line-height:1.2;white-space:normal;overflow-wrap:normal">&lt;&lt;interface&gt;&gt;<br/>ServiceInterface<br/></div></div></div></foreignObject><rect height="30" class="none-stroke" width="160" x="230" y="160"/><foreignObject class="leftdiv" ><div class="flexstart flexzero" style="width:158px;padding-top:175px;margin-left:232px" xmlns="http://www.w3.org/1999/xhtml"><div class="leftdiv"><div style="display:inline-block;line-height:1.2;white-space:normal;overflow-wrap:normal"><div style="">+ operation()</div></div></div></div></foreignObject><path d="M 430 290 L 430 230 L 310 230 L 310 204.24" class="none-stroke" stroke-dasharray="6 6" stroke-miterlimit="10" stroke-width="2"/><path d="M 310 192.24 L 316 204.24 L 304 204.24 Z" class="none-stroke" stroke-miterlimit="10" stroke-width="2"/><rect height="30" class="none-stroke" width="160" x="350" y="290"/><foreignObject class="leftdiv" ><div class="flexcenter flexzero" style="width:158px;padding-top:305px;margin-left:351px" xmlns="http://www.w3.org/1999/xhtml"><div class="centerdiv"><div style="display:inline-block;line-height:1.2;white-space:normal;overflow-wrap:normal">Service<br/></div></div></div></foreignObject><rect height="30" class="none-stroke" width="160" x="350" y="320"/><foreignObject class="leftdiv" ><div class="flexstart flexzero" style="width:158px;padding-top:335px;margin-left:352px" xmlns="http://www.w3.org/1999/xhtml"><div class="leftdiv"><div style="display:inline-block;line-height:1.2;white-space:normal;overflow-wrap:normal"><div style="">...</div></div></div></div></foreignObject><rect height="30" class="none-stroke" width="160" x="350" y="350"/><foreignObject class="leftdiv" ><div class="flexstart flexzero" style="width:158px;padding-top:365px;margin-left:352px" xmlns="http://www.w3.org/1999/xhtml"><div class="leftdiv"><div style="display:inline-block;line-height:1.2;white-space:normal;overflow-wrap:normal"><div style="">+ operation()</div></div></div></div></foreignObject><path d="M 135 260 L 135 230 L 310 230 L 310 204.24" class="none-stroke" stroke-dasharray="6 6" stroke-miterlimit="10" stroke-width="2"/><path d="M 310 192.24 L 316 204.24 L 304 204.24 Z" class="none-stroke" stroke-miterlimit="10" stroke-width="2"/><rect height="30" class="none-stroke" width="270" x="0" y="260"/><foreignObject class="leftdiv" ><div class="flexcenter flexzero" style="width:268px;padding-top:275px;margin-left:1px" xmlns="http://www.w3.org/1999/xhtml"><div class="centerdiv"><div style="display:inline-block;line-height:1.2;white-space:normal;overflow-wrap:normal">Proxy<br/></div></div></div></foreignObject><path d="M 283.99 305 L 347.76 305" class="none-stroke" stroke-miterlimit="10"/><path d="M 270.99 305 L 277.49 301.18 L 283.99 305 L 277.49 308.82 Z" class="none-stroke" stroke-miterlimit="10"/><path d="M 336.88 311 L 348.88 305 L 336.88 299" class="none-stroke" stroke-miterlimit="10"/><rect height="30" class="none-stroke" width="270" x="0" y="290"/><foreignObject class="leftdiv" ><div class="flexstart flexzero" style="width:268px;padding-top:305px;margin-left:2px" xmlns="http://www.w3.org/1999/xhtml"><div class="leftdiv"><div style="display:inline-block;line-height:1.2;white-space:normal;overflow-wrap:normal"><div style="">- realService:Service</div></div></div></div></foreignObject><rect height="30" class="none-stroke" width="270" x="0" y="320"/><foreignObject class="leftdiv" ><div class="flexstart flexzero" style="width:268px;padding-top:335px;margin-left:2px" xmlns="http://www.w3.org/1999/xhtml"><div class="leftdiv"><div style="display:inline-block;line-height:1.2;white-space:normal;overflow-wrap:normal"><div style="">+ Proxy(s:Service)</div></div></div></div></foreignObject><rect height="30" class="none-stroke" width="270" x="0" y="350"/><foreignObject class="leftdiv" ><div class="flexstart flexzero" style="width:268px;padding-top:365px;margin-left:2px" xmlns="http://www.w3.org/1999/xhtml"><div class="leftdiv"><div style="display:inline-block;line-height:1.2;white-space:normal;overflow-wrap:normal"><div style="">+ checkAccess()</div></div></div></div></foreignObject><path d="M 310 60 L 310 95.53" class="none-stroke" stroke-miterlimit="10" stroke-width="2"/><path d="M 304 85.76 L 310 97.76 L 316 85.76" class="none-stroke" stroke-miterlimit="10" stroke-width="2"/><rect height="60" class="none-stroke" width="160" x="230" y="0"/><foreignObject class="leftdiv" ><div class="flexcenter flexzero" style="width:158px;padding-top:30px;margin-left:231px" xmlns="http://www.w3.org/1999/xhtml"><div class="centerdiv"><div style="display:inline-block;line-height:1.2;white-space:normal;overflow-wrap:normal">Client<br/></div></div></div></foreignObject><path d="M 135 450 L 135 410" class="none-stroke" stroke-dasharray="6 6" stroke-miterlimit="10" stroke-width="2"/><path d="M 5 450 L 265 450 L 275 460 L 275 530 L 5 530 L 5 450 Z" fill="#333333" stroke="gray" stroke-miterlimit="10"/><path d="M 265 450 L 265 460 L 275 460 Z" fill="#000000" fill-opacity="0.05" stroke="none"/><path d="M 265 450 L 265 460 L 275 460" class="none-stroke" stroke-miterlimit="10"/><foreignObject class="leftdiv" ><div class="flexstart flexzero" style="width:268px;padding-top:490px;margin-left:7px" xmlns="http://www.w3.org/1999/xhtml"><div class="leftdiv"><div style='display:inline-block;font-size:15px;color:gray;line-height:1.2;white-space:normal;overflow-wrap:normal;'>if (checkAccess()) {<br/>realService.operation()<br/>}</div></div></div></foreignObject><path d="M 310 415 L 290 415 L 290 335 L 270 335" class="none-stroke" stroke-dasharray="6 6" stroke-miterlimit="10" stroke-width="2"/><path d="M 310 400 L 450 400 L 460 410 L 460 430 L 310 430 L 310 400 Z" fill="#333333" stroke="gray" stroke-miterlimit="10"/><path d="M 450 400 L 450 410 L 460 410 Z" fill="#000000" fill-opacity="0.05" stroke="none"/><path d="M 450 400 L 450 410 L 460 410" class="none-stroke" stroke-miterlimit="10"/><foreignObject class="leftdiv" ><div class="flexstart flexzero" style="width:148px;padding-top:415px;margin-left:312px" xmlns="http://www.w3.org/1999/xhtml"><div class="leftdiv"><div style='display:inline-block;font-size:15px;color:gray;line-height:1.2;white-space:normal;overflow-wrap:normal;'>realService = s</div></div></div></foreignObject><rect height="30" class="none-stroke" width="270" x="0" y="380"/><foreignObject class="leftdiv" ><div class="flexstart flexzero" style="width:268px;padding-top:395px;margin-left:2px" xmlns="http://www.w3.org/1999/xhtml"><div class="leftdiv"><div style="display:inline-block;line-height:1.2;white-space:normal;overflow-wrap:normal"><div style="">+ operation()</div></div></div></div></foreignObject></svg>

<?xml version="1.0" encoding="utf-8"?><svg height="532" viewBox="-0.5 -0.5 512 532" width="512" xmlns="http://www.w3.org/2000/svg" xmlns:xlink="http://www.w3.org/1999/xlink"><defs><style>@import url(https://fonts.googleapis.com/css?family=Fira+Code);</style><style>svg { color: gray;font-size: 14px;font-family: "Fira Code";} .none-stroke { fill: none;stroke: gray;} .fill-stroke { fill: #333;stroke: gray;} foreignObject { width: 100%;height: 100%;} .leftdiv { overflow: visible;text-align: left;} .centerdiv { box-sizing:border-box;text-align:center } .normaldiv { display:inline-block;line-height:1.2;white-space:normal;overflow-wrap:normal } .flexcenter { display:flex;align-items:unsafe center;justify-content:unsafe center;} .flexstart { display:flex;align-items:unsafe center;justify-content:unsafe flex-start;} .flexzero {height: 1px;}</style></defs><path d="M230 100h160v60H230z" class="none-stroke"/><foreignObject class="leftdiv" ><div class="flexcenter flexzero" style="width:158px;padding-top:130px;margin-left:231px" xmlns="http://www.w3.org/1999/xhtml"><div class="centerdiv"><div style="display:inline-block;line-height:1.2;white-space:normal;overflow-wrap:normal"><span style="font-size:15px">&lt;&lt;interface&gt;&gt;<br/>ServiceInterface<br/></span></div></div></div></foreignObject><path d="M230 160h160v30H230z" class="none-stroke"/><foreignObject class="leftdiv" ><div class="flexstart flexzero" style="width:158px;padding-top:175px;margin-left:232px" xmlns="http://www.w3.org/1999/xhtml"><div class="leftdiv"><div style="display:inline-block;line-height:1.2;white-space:normal;overflow-wrap:normal"><div><span style="font-size:15px">+ operation()</span></div></div></div></div></foreignObject><path d="M430 290v-60H310v-25.76" class="none-stroke" stroke-dasharray="6 6" stroke-miterlimit="10" stroke-width="2"/><path d="m310 192.24 6 12h-12Z" class="none-stroke" stroke-miterlimit="10" stroke-width="2"/><path d="M350 290h160v30H350z" class="none-stroke"/><foreignObject class="leftdiv" ><div class="flexcenter flexzero" style="width:158px;padding-top:305px;margin-left:351px" xmlns="http://www.w3.org/1999/xhtml"><div class="centerdiv"><div style="display:inline-block;line-height:1.2;white-space:normal;overflow-wrap:normal"><span style="font-size:15px">Service<br/></span></div></div></div></foreignObject><path d="M350 320h160v30H350z" class="none-stroke"/><foreignObject class="leftdiv" ><div class="flexstart flexzero" style="width:158px;padding-top:335px;margin-left:352px" xmlns="http://www.w3.org/1999/xhtml"><div class="leftdiv"><div style="display:inline-block;line-height:1.2;white-space:normal;overflow-wrap:normal"><div><span style="font-size:15px">...</span></div></div></div></div></foreignObject><path d="M350 350h160v30H350z" class="none-stroke"/><foreignObject class="leftdiv" ><div class="flexstart flexzero" style="width:158px;padding-top:365px;margin-left:352px" xmlns="http://www.w3.org/1999/xhtml"><div class="leftdiv"><div style="display:inline-block;line-height:1.2;white-space:normal;overflow-wrap:normal"><div><span style="font-size:15px">+ operation()</span></div></div></div></div></foreignObject><path d="M135 260v-30h175v-25.76" class="none-stroke" stroke-dasharray="6 6" stroke-miterlimit="10" stroke-width="2"/><path d="m310 192.24 6 12h-12Z" class="none-stroke" stroke-miterlimit="10" stroke-width="2"/><path d="M0 260h270v30H0z" class="none-stroke"/><foreignObject class="leftdiv" ><div class="flexcenter flexzero" style="width:268px;padding-top:275px;margin-left:1px" xmlns="http://www.w3.org/1999/xhtml"><div class="centerdiv"><div style="display:inline-block;line-height:1.2;white-space:normal;overflow-wrap:normal"><span style="font-size:15px">Proxy<br/></span></div></div></div></foreignObject><path d="M283.99 305h63.77" class="none-stroke" stroke-miterlimit="10"/><path d="m270.99 305 6.5-3.82 6.5 3.82-6.5 3.82ZM336.88 311l12-6-12-6" class="none-stroke" stroke-miterlimit="10"/><path d="M0 290h270v30H0z" class="none-stroke"/><foreignObject class="leftdiv" ><div class="flexstart flexzero" style="width:268px;padding-top:305px;margin-left:2px" xmlns="http://www.w3.org/1999/xhtml"><div class="leftdiv"><div style="display:inline-block;line-height:1.2;white-space:normal;overflow-wrap:normal"><div><span style="font-size:15px">- realService: Service</span></div></div></div></div></foreignObject><path d="M0 320h270v30H0z" class="none-stroke"/><foreignObject class="leftdiv" ><div class="flexstart flexzero" style="width:268px;padding-top:335px;margin-left:2px" xmlns="http://www.w3.org/1999/xhtml"><div class="leftdiv"><div style="display:inline-block;line-height:1.2;white-space:normal;overflow-wrap:normal"><div><span style="font-size:15px">+ Proxy(s: Service)</span></div></div></div></div></foreignObject><path d="M0 350h270v30H0z" class="none-stroke"/><foreignObject class="leftdiv" ><div class="flexstart flexzero" style="width:268px;padding-top:365px;margin-left:2px" xmlns="http://www.w3.org/1999/xhtml"><div class="leftdiv"><div style="display:inline-block;line-height:1.2;white-space:normal;overflow-wrap:normal"><div><span style="font-size:15px">+ checkAccess()</span></div></div></div></div></foreignObject><path d="M310 60v35.53" class="none-stroke" stroke-miterlimit="10" stroke-width="2"/><path d="m304 85.76 6 12 6-12" class="none-stroke" stroke-miterlimit="10" stroke-width="2"/><path d="M230 0h160v60H230z" class="none-stroke"/><foreignObject class="leftdiv" ><div class="flexcenter flexzero" style="width:158px;padding-top:30px;margin-left:231px" xmlns="http://www.w3.org/1999/xhtml"><div class="centerdiv"><div style="display:inline-block;line-height:1.2;white-space:normal;overflow-wrap:normal"><span style="font-size:15px">Client<br/></span></div></div></div></foreignObject><path d="M135 450v-40" class="none-stroke" stroke-dasharray="6 6" stroke-miterlimit="10" stroke-width="2"/><path d="M5 450h260l10 10v70H5v-80Z" class="fill-stroke" stroke-miterlimit="10"/><path d="M265 450v10h10Z" fill-opacity=".05" /><path d="M265 450v10h10" class="none-stroke" stroke-miterlimit="10"/><foreignObject class="leftdiv" ><div class="flexstart flexzero" style="width:268px;padding-top:490px;margin-left:7px" xmlns="http://www.w3.org/1999/xhtml"><div class="leftdiv"><div style='display:inline-block;font-size:15px;color:gray;line-height:1.2;white-space:normal;overflow-wrap:normal'>if (checkAccess()) {<br/>realService.operation()<br/>}</div></div></div></foreignObject><path d="M310 415h-20v-80h-20" class="none-stroke" stroke-dasharray="6 6" stroke-miterlimit="10" stroke-width="2"/><path d="M310 400h140l10 10v20H310v-30Z" class="fill-stroke" stroke-miterlimit="10"/><path d="M450 400v10h10Z" fill-opacity=".05" /><path d="M450 400v10h10" class="none-stroke" stroke-miterlimit="10"/><foreignObject class="leftdiv" ><div class="flexstart flexzero" style="width:148px;padding-top:415px;margin-left:312px" xmlns="http://www.w3.org/1999/xhtml"><div class="leftdiv"><div style='display:inline-block;font-size:15px;color:gray;line-height:1.2;white-space:normal;overflow-wrap:normal'>realService = s</div></div></div></foreignObject><path d="M0 380h270v30H0z" class="none-stroke"/><foreignObject class="leftdiv" ><div class="flexstart flexzero" style="width:268px;padding-top:395px;margin-left:2px" xmlns="http://www.w3.org/1999/xhtml"><div class="leftdiv"><div style="display:inline-block;line-height:1.2;white-space:normal;overflow-wrap:normal"><div><span style="font-size:15px">+ operation()</span></div></div></div></div></foreignObject></svg>
